svgs/rrb_je_app.svg

<svg width="192" height="192" viewBox="0 0 192 192" fill="none" xmlns="http://www.w3.org/2000/svg">
<path d="M157.91 28H34.0896C30.7264 28 28 30.7264 28 34.0896V157.91C28 161.274 30.7264 164 34.0896 164H157.91C161.274 164 164 161.274 164 157.91V34.0896C164 30.7264 161.274 28 157.91 28Z" stroke="black" stroke-width="8"/>
<path d="M37.1343 81.791V67.91M37.1343 67.91V56.3603C37.1343 54.8592 37.6524 53.3636 38.8023 52.3986C42.7713 49.0675 46.3401 50.0188 49.6267 53.3841C50.0344 53.8015 50.3571 54.2966 50.5946 54.8296C54.39 63.3449 51.9523 66.1795 44.3143 67.3025M37.1343 67.91C39.8827 67.7788 42.2825 67.6012 44.3143 67.3025M44.3143 67.3025L50.2273 81.791" stroke="black" stroke-width="8" stroke-linecap="round"/>
<path d="M63.5224 81.791V67.91M63.5224 67.91V56.3603C63.5224 54.8592 64.0405 53.3636 65.1903 52.3986C69.1594 49.0675 72.7282 50.0188 76.0148 53.3841C76.4225 53.8015 76.7451 54.2966 76.9826 54.8296C80.778 63.3449 78.3404 66.1795 70.7024 67.3025M63.5224 67.91C66.2708 67.7788 68.6706 67.6012 70.7024 67.3025M70.7024 67.3025L76.6153 81.791" stroke="black" stroke-width="8" stroke-linecap="round"/>
<path d="M89.9104 66.0597V75.7015C89.9104 79.0646 92.6368 81.791 96 81.791H100.175C101.86 81.791 103.529 81.1397 104.539 79.7921C106.799 76.7772 107.065 73.7151 102.815 66.0597M89.9104 66.0597V56.4179C89.9104 53.0548 92.6368 50.3284 96 50.3284H99.2782C101.465 50.3284 103.536 51.4795 104.451 53.4656C106.474 57.8524 106.409 60.6518 104.453 63.6672C103.523 65.1024 101.841 65.8132 100.131 65.8485L89.9104 66.0597Z" stroke="black" stroke-width="8" stroke-linecap="round"/>
<path d="M154.866 81.791H145.731C142.368 81.791 139.642 79.0646 139.642 75.7015V66.0597M139.642 66.0597V56.4179C139.642 53.0548 142.368 50.3284 145.731 50.3284H154.866M139.642 66.0597H148.946" stroke="black" stroke-width="8" stroke-linecap="round"/>
<path d="M117.313 80.8018C120.343 81.6465 122.303 81.877 123.98 81.7645C126.7 81.5819 128.478 78.9189 128.478 76.1925V50.3284" stroke="black" stroke-width="8" stroke-linecap="round"/>
<path d="M49.3134 116.299H43.2239C39.8607 116.299 37.1343 119.025 37.1343 122.388V125.94M37.1343 125.94V129.493C37.1343 132.856 39.8607 135.582 43.2239 135.582H48.5015M37.1343 125.94H46.0657" stroke="black" stroke-width="6" stroke-linecap="round"/>
<path d="M67.5821 116.299V127.125M67.5821 127.125V129.493C67.5821 132.856 64.8557 135.582 61.4925 135.582H59.2792C57.1384 135.582 55.403 133.847 55.403 131.706C55.403 129.69 56.9483 128.011 58.9573 127.843L67.5821 127.125Z" stroke="black" stroke-width="6" stroke-linecap="round"/>
<path d="M75.7015 116.299V129.821C75.7015 131.405 76.2803 132.978 77.5163 133.967C80.3324 136.223 82.3669 136.005 84.9373 134.001C86.2363 132.988 86.8657 131.361 86.8657 129.714V116.299" stroke="black" stroke-width="6" stroke-linecap="round"/>
<path d="M101.075 135.582V127.074M101.075 127.074V121.52C101.075 119.655 101.878 117.777 103.581 117.015C106.502 115.707 109.171 116.282 111.653 117.996C112.175 118.356 112.61 118.835 112.938 119.377C115.94 124.348 113.779 126.028 107.297 126.701M101.075 127.074C103.457 126.994 105.536 126.885 107.297 126.701M107.297 126.701L112.421 135.582" stroke="black" stroke-width="6" stroke-linecap="round"/>
<path d="M121.408 125.765C121.155 120.062 122.191 118.02 128.101 118.365C130.68 118.225 132.053 118.757 132.776 119.89C134.565 122.696 130.869 125.765 127.542 125.765H121.408ZM121.408 125.765C121.261 134.566 123.113 135.912 127.622 135.523C127.941 135.496 128.263 135.487 128.582 135.497C132.292 135.608 132.895 134.638 133.539 132.702" stroke="black" stroke-width="6" stroke-linecap="round"/>
<path d="M140.657 118.328C140.657 118.328 146.374 136.779 146.374 135.52C146.374 134.263 153.851 118.748 153.851 118.748" stroke="black" stroke-width="6" stroke-linecap="round"/>
</svg>

<svg width="192" height="192" viewBox="0 0 192 192" fill="none" xmlns="http://www.w3.org/2000/svg"><path d="M157.91 28H34.09A6.09 6.09 0 0 0 28 34.09v123.82a6.09 6.09 0 0 0 6.09 6.09h123.82a6.09 6.09 0 0 0 6.09-6.09V34.09a6.09 6.09 0 0 0-6.09-6.09Z" stroke="#000" stroke-width="8"/><path d="M37.134 81.791V67.91m0 0V56.36c0-1.5.518-2.996 1.668-3.961 3.97-3.331 7.538-2.38 10.825.985.407.417.73.913.968 1.446 3.795 8.515 1.357 11.35-6.28 12.472m-7.18.608c2.748-.131 5.148-.309 7.18-.608m0 0 5.912 14.489M63.522 81.791V67.91m0 0V56.36c0-1.5.518-2.996 1.668-3.961 3.97-3.331 7.538-2.38 10.825.985.407.417.73.913.968 1.446 3.795 8.515 1.357 11.35-6.28 12.472m-7.18.608c2.748-.131 5.148-.309 7.18-.608m0 0 5.912 14.489M89.91 66.06V75.7a6.09 6.09 0 0 0 6.09 6.09h4.175c1.685 0 3.354-.651 4.364-1.999 2.26-3.015 2.526-6.077-1.724-13.732m-12.905 0v-9.642a6.09 6.09 0 0 1 6.09-6.09h3.278c2.187 0 4.258 1.151 5.173 3.138 2.023 4.386 1.958 7.186.002 10.201-.93 1.435-2.612 2.146-4.322 2.181l-10.22.212ZM154.866 81.791h-9.135a6.09 6.09 0 0 1-6.089-6.09V66.06m0 0v-9.642a6.09 6.09 0 0 1 6.089-6.09h9.135M139.642 66.06h9.304M117.313 80.802c3.03.844 4.99 1.075 6.667.962 2.72-.182 4.498-2.845 4.498-5.572V50.328" stroke="#000" stroke-width="8" stroke-linecap="round"/><path d="M49.313 116.299h-6.09a6.09 6.09 0 0 0-6.089 6.089v3.552m0 0v3.553a6.09 6.09 0 0 0 6.09 6.089h5.278m-11.368-9.642h8.932M67.582 116.299v10.826m0 0v2.368a6.09 6.09 0 0 1-6.09 6.089H59.28a3.876 3.876 0 0 1-.322-7.739l8.625-.718ZM75.701 116.299v13.522c0 1.584.58 3.157 1.815 4.146 2.816 2.256 4.85 2.038 7.421.034 1.3-1.013 1.929-2.64 1.929-4.287v-13.415M101.075 135.582v-8.508m0 0v-5.554c0-1.865.803-3.743 2.506-4.505 2.921-1.308 5.59-.733 8.072.981.522.36.957.839 1.285 1.381 3.002 4.971.841 6.651-5.641 7.324m-6.222.373c2.382-.08 4.461-.189 6.222-.373m0 0 5.124 8.881M121.408 125.765c-.253-5.703.783-7.745 6.693-7.4 2.579-.14 3.952.392 4.675 1.525 1.789 2.806-1.907 5.875-5.234 5.875h-6.134Zm0 0c-.147 8.801 1.705 10.147 6.214 9.758.319-.027.641-.036.96-.026 3.71.111 4.313-.859 4.957-2.795M140.657 118.328s5.717 18.451 5.717 17.192c0-1.257 7.477-16.772 7.477-16.772" stroke="#000" stroke-width="6" stroke-linecap="round"/></svg>
